icons/tv.svg

<svg width="24" height="24" viewBox="0 0 24 24" fill="none" xmlns="http://www.w3.org/2000/svg">
<path fill-rule="evenodd" clip-rule="evenodd" d="M9.73034 2.96967C9.43745 2.67678 8.96258 2.67678 8.66968 2.96967C8.37679 3.26256 8.37679 3.73744 8.66968 4.03033L10.3894 5.75H7C4.38579 5.75 2.25 7.88579 2.25 10.5V16.5C2.25 19.1019 4.27354 21.25 7 21.25H17C19.6142 21.25 21.75 19.1142 21.75 16.5V10.5C21.75 7.88579 19.6142 5.75 17 5.75H13.3107L15.0303 4.03033C15.3232 3.73744 15.3232 3.26256 15.0303 2.96967C14.7374 2.67678 14.2626 2.67678 13.9697 2.96967L11.85 5.08933L9.73034 2.96967ZM3.75 10.5C3.75 8.71421 5.21421 7.25 7 7.25H17C18.7858 7.25 20.25 8.71421 20.25 10.5V16.5C20.25 18.2858 18.7858 19.75 17 19.75H7C5.12646 19.75 3.75 18.2981 3.75 16.5V10.5Z" fill="black"/>
</svg>

<svg xmlns="http://www.w3.org/2000/svg" fill="none" viewBox="0 0 24 24">
  <path fill="#000" fill-rule="evenodd" d="M9.73 2.97a.75.75 0 0 0-1.06 1.06l1.72 1.72H7a4.762 4.762 0 0 0-4.75 4.75v6c0 2.602 2.024 4.75 4.75 4.75h10a4.762 4.762 0 0 0 4.75-4.75v-6A4.762 4.762 0 0 0 17 5.75h-3.69l1.72-1.72a.75.75 0 0 0-1.06-1.06l-2.12 2.12-2.12-2.12ZM3.75 10.5A3.262 3.262 0 0 1 7 7.25h10a3.262 3.262 0 0 1 3.25 3.25v6A3.262 3.262 0 0 1 17 19.75H7c-1.874 0-3.25-1.452-3.25-3.25v-6Z" clip-rule="evenodd"/>
</svg>
